X:1
T:Title
%%score ( 1 2 3 ) { ( 4 6 ) | 5 }
L:1/8
Q:1/4=95
M:4/4
K:D
V:1 treble nm="Grand Piano, Soprano"
V:2 treble 
V:3 treble 
V:4 bass nm="Choir Pad, Bass"
V:6 bass 
V:5 bass 
V:1
 [DG]2 [Dd]2 [FB]2 [EG]2 | .A2 z2 .B2 z2 | .A2 z2 .[ce]2 z2 | .A2 .G4 z2 | %4
w: By~Arthur~Henry~Brown,~1871 * * *||||
 [DG]2 [Dd][Dd] [FB]2 G2 | E-[EB] [Ac]2 BA [GB]2 | [GB]2 [DA]2- [DA][DA] [GB]2 | %7
w: |||
 [Fd]2 [Ge]2 dc [Fd]2- | [Fd]2 [FA]2 [=FA][FB] [Ac]2 | [Ac]2 G2- G/ z/ A [GB]2- | %10
w: |||
 [GB]2 [Gd]2- [Gd][Ge] [Gd]2 | [Fc][GB] A2- A/ z/ G G2 | z2 D2- D/ z/ D D2 | D2 E2 G2 G2- | %14
w: ||||
 G2 [FA]2- [FA][FB] [Gc]2 | [Gc]2 [GB]2 [FA]2 [GB]2- | [GB]2 d2- [G-d]/G/[Fd] G[DA] | .B2 d2 z4 | %18
w: ||||
 z2 .B4 z2 | G2 [FA]2 [EG]2 G2 | z2 [DG]2 [Dd][Dd] [FB]2 | G2 E-[EB] [Ac]2 BA | %22
w: ||||
 [GB]2 [GB]2 [DA]3 [DA] | [GB]2 [Fd]2 [Ge]2 dc | [Fd]4 [FA]2 [=FA][FB] | [Ac]2 [Ac]2 G3 A | %26
w: ||||
 [GB]4 [Gd]3 [Ge] | [Gd]2 [Fc][GB] A3 G | G2 z2 D3 D | D2 D2 E2 G2 | G4 [FA]3 [FB] | %31
w: |||||
 [Gc]2 [Gc]2 [GB]2 [FA]2 | [GB]4 d2- [Gd][Fd] | z2 .B2 d2 z2 | z4 B4 | [Dd]2 G2 [FA]2 [EG]2 | %36
w: |||||
 G2 z2 [DG]2 [Dd][Dd] | [FB]2 G2 E-[EB] [Ac]2 | BA [GB]2 [GB]2 [DA]2- | %39
w: |||
 [DA][DA] [GB]2 [Fd]2 [Ge]2 | dc [Fd]4 [FA]2 | [=FA][FB] [Ac]2 [Ac]2 G2- | GA [GB]4 [Gd]2- | %43
w: ||||
 [Gd][Ge] [Gd]2 [Fc][GB] A2- | AG G2 z2 D2- | DD D2 D2 E2 | G2 G4 [FA]2- | %47
w: ||||
 [FA][FB] [Gc]2 [Gc]2 [GB]2 | z4 z2 A2 | z4 .B2 d2 | z4 z2 B2- | B z z2 z4 | [EG]2 G2 z2 [DG]2 | %53
w: ||||||
 z4 z2 .A2 | [Ac]2 BA [GB]2 [GB]2 | [DA]3 [DA] [GB]2 [Fd]2 | [Ge]2 dc [Fd]4 | %57
w: ||||
 [FA]2 [=FA][FB] [Ac]2 [Ac]2 | G3 A [GB]4 | [Gd]3 [Ge] [Gd]2 [Fc][GB] | A3 G G2 z2 | D3 D D2 D2 | %62
w: |||||
 E2 G2 G4 | [FA]3 [FB] [Gc]2 [Gc]2 | [GB]2 [FA]2 [GB]4 | A2 z2 z2 .B2 | d2 z2 z4 | B4 z4 | %68
w: ||||||
 [FA]2 [EG]2 G4- | G4 z4 |] %70
w: ||
V:2
 x8 | E-[EB] [EAc]2 [DF]-[DFA] [DGB]2 | D-[DG][DF]E E-[EBd][EAc][DGB] | C-[CG] [B,D]2 z F [B,DG]2 | %4
 x8 | .A2 z2 F2 z2 | x8 | z4 E2 z2 | x8 | z2 E2 ^D2 z2 | x8 | z2 G2 F2 z2 | x8 | x8 | x8 | x8 | %16
 z2 A2 z4 | G-[Gc]DG [Ac][GB] [FA]2- | [FA]2 DG F[Ec] [Dd]2 | x8 | x8 | z2 .A2 z2 F2 | x8 | %23
 z4 z2 E2 | x8 | z4 E2 ^D2 | x8 | z4 G2 F2 | x8 | x8 | x8 | x8 | z4 A2 z2 | %33
 G[DA]G-[Gc] DG[Ac][GB] | [FA]4 DGF[Ec] | x8 | x8 | z4 .A2 z2 | F2 z2 z4 | x8 | E2 z2 z4 | %41
 z4 z2 E2 | ^D2 z2 z4 | z4 z2 G2 | F2 z2 z4 | x8 | x8 | x8 | [FA]2 [GB]4 d2- | %49
 [Gd][Fd]G[DA] G-[Gc]DG | [Ac][GB] [FA]4 DG | F[Ec] [Dd]2 G2 [FA]2 | x8 | %53
 [Dd][Dd] [FB]2 G2 E-[EB] | z2 F2 z4 | x8 | z2 E2 z4 | x8 | E2 ^D2 z4 | x8 | G2 F2 z4 | x8 | x8 | %63
 x8 | x8 | d2- [Gd][Fd] G[DA]G-[Gc] | DG[Ac][GB] [FA]4 | DGF[Ec] [Dd]2 G2 | x8 | x8 |] %70
V:3
 x8 | x8 | x8 | z4 [A,D]2 z2 | x8 | x8 | x8 | x8 | x8 | x8 | x8 | x8 | x8 | x8 | x8 | x8 | x8 | %17
 x8 | x8 | x8 | x8 | x8 | x8 | x8 | x8 | x8 | x8 | x8 | x8 | x8 | x8 | x8 | x8 | x8 | x8 | x8 | %36
 x8 | x8 | x8 | x8 | x8 | x8 | x8 | x8 | x8 | x8 | x8 | x8 | x8 | x8 | x8 | x8 | x8 | x8 | x8 | %55
 x8 | x8 | x8 | x8 | x8 | x8 | x8 | x8 | x8 | x8 | x8 | x8 | x8 | x8 | x8 |] %70
V:4
 B,2 A,2 D2 B,2 | C,2 A,,2 D,2 G,2 | G,2 G,2 A,,B,,C,D, | E,2 D,2 D,,2 G,,2 | %4
 B,2 A,A,[K:treble] D2 B,2 | E2 E2 D2 D2 | D2 D2- DD D2 | D2[K:bass] B,2 A,2 A,2- | A,2 D2 DD E2 | %9
 E2[K:treble] z2 z4 | z8 | z4 C2[K:bass] z2 | z2 D,2- D,/ z/ D, D,2 | D,2 E,2 G,2 G,2- | %14
 G,2[K:treble] D2- DD E2 | E2 D2 D2 D2- | D2 FE DC[K:bass]B,A, | G,A, B,2[K:treble] ED D2- | %18
 D2 D2- DC B,2 | C2 D2 C2 B,2 | z2[K:bass] B,2 A,A, D2 | B,2[K:treble] E2 E2 D2 | D2 D2 D3 D | %23
 D2 D2[K:bass] B,2 A,2 | A,4 D2 DD | z2 E2[K:treble] z4 | D4 B,3 C | z4 z2 C2[K:bass] | %28
 B,2 z2 D,3 D, | D,2 D,2 E,2 G,2 | G,4[K:treble] D3 D | E2 E2 D2 D2 | D4 FEDC | %33
 B,A,G,A, B,2[K:treble] ED | D4 D3 C | B,2 C2 D2 C2 | B,2 z2[K:bass] B,2 A,A, | %37
 D2 B,2[K:treble] E2 E2 | D2 D2 D2 D2- | DD D2 D2[K:bass] B,2 | A,2 A,4 D2 | z4 E2[K:treble] z2 | %42
 C2 D4 B,2- | B,C D2 D2 D2 | C2[K:bass] z2 z4 | z8 | G,2 G,4[K:treble] D2- | DD E2 E2 D2 | %48
 D2 D4 FE | DC[K:bass]B,A, G,A, B,2 | ED D4 D2- | DC B,2 C2 D2 | C2 B,2 z2[K:bass] B,2 | %53
 A,A, D2 B,2[K:treble] E2 | E2 D2 D2 D2 | D3 D D2 D2 | B,2 A,2 A,4 | z4 z2 E2 | C2 C2 D4 | %59
 B,3 C D2 D2 | z2 C2[K:bass] z4 | D,3 D, D,2 D,2 | E,2 G,2 G,4 | D3 D E2 E2 | D2 D2 D4 | %65
 FEDC[K:bass] B,A,G,A, | B,2[K:treble] ED D4 | D3 C B,2 C2 | D2 C2 B,4- | B,4 z4 |] %70
V:5
 G,2 F,2 D,2 E,2 | z8 | B,,2 C,2 z4 | z8 | G,2 F,F, D,2 E,2 | C,2 A,,2 D,2 G,2 | %6
 G,2 F,2- F,F, G,2 | B,2 E,2 z2 D,2- | D,2 D,2 D,D, A,,2- | A,,2 C,2 C,2 G,2- | G,2 z2 z2 B,2 | %11
 A,G, .D,4 G,,2 | z8 | z8 | z2 D,2- D,D, C,2 | C,2 G,2 D,2 G,2- | G,2 DC B,A,G,F, | %17
 E,2 B,,2 C,2 D,2- | D,2 G,,2- G,,A,, B,,2 | E,2 D,2 D,2 G,,2 | z2 G,2 F,F, D,2 | %21
 E,2 C,2 A,,2 D,2 | G,2 G,2 F,3 F, | G,2 B,2 E,2 z2 | D,4 D,2 D,D, | .A,,4 C,2 C,2 | G,4 z4 | %27
 B,2 A,G, .D,4 | G,,2 z2 z4 | z8 | z4 D,3 D, | C,2 C,2 G,2 D,2 | G,4 DCB,A, | G,F, E,2 B,,2 C,2 | %34
 D,4 G,,3 A,, | B,,2 E,2 D,2 D,2 | G,,2 z2 G,2 F,F, | D,2 E,2 C,2 A,,2 | D,2 G,2 G,2 F,2- | %39
 F,F, G,2 B,2 E,2 | z2 D,4 D,2 | D,D, .A,,4 C,2 | C,2 G,4 z2 | z2 B,2 A,G, D,2- | D,2 G,,2 z4 | %45
 z8 | z4 z2 D,2- | D,D, C,2 C,2 G,2 | D,2 G,4 DC | B,A,G,F, E,2 B,,2 | C,2 D,4 G,,2- | %51
 G,,A,, B,,2 E,2 D,2 | D,2 G,,2 z2 G,2 | F,F, D,2 E,2 C,2 | A,,2 D,2 G,2 G,2 | F,3 F, G,2 B,2 | %56
 E,2 z2 D,4 | D,2 D,D, .A,,4 | C,2 C,2 G,4 | z4 B,2 A,G, | .D,4 G,,2 z2 | z8 | z8 | %63
 D,3 D, C,2 C,2 | G,2 D,2 G,4 | DCB,A, G,F, E,2 | B,,2 C,2 D,4 | G,,3 A,, B,,2 E,2 | %68
 D,2 D,2 G,,4- | G,,4 z4 |] %70
V:6
 x8 | x8 | x8 | x8 | x4[K:treble] x4 | x8 | x8 | x2[K:bass] x6 | x8 | z B,,[K:treble] C2 C2 D2- | %10
 D2 B,2- B,/ z/ C D2 | D2 D2 z[K:bass] D, B,2 | x8 | x8 | x2[K:treble] x6 | x8 | x6[K:bass] x2 | %17
 x4[K:treble] x4 | x8 | x8 | x2[K:bass] x6 | x2[K:treble] x6 | x8 | x4[K:bass] x4 | x8 | %25
 E2 z B,,[K:treble] C2 C2 | x8 | D2 D2 D2 z[K:bass] D, | x8 | x8 | x4[K:treble] x4 | x8 | x8 | %33
 x6[K:treble] x2 | x8 | x8 | x4[K:bass] x4 | x4[K:treble] x4 | x8 | x6[K:bass] x2 | x8 | %41
 DD E2 z B,,[K:treble] C2 | x8 | x8 | z[K:bass] D, B,2 z2 D,2- | D,D, D,2 D,2 E,2 | %46
 x6[K:treble] x2 | x8 | x8 | x2[K:bass] x6 | x8 | x8 | x6[K:bass] x2 | x6[K:treble] x2 | x8 | x8 | %56
 x8 | D2 DD E2 z B,, | x8 | x8 | D2 z[K:bass] D, B,2 z2 | x8 | x8 | x8 | x8 | x4[K:bass] x4 | %66
 x2[K:treble] x6 | x8 | x8 | x8 |] %70

